X: 28574
T: Murphy's
R: polka
M: 2/4
K: Gmajor
|:gB fB|ed d/B/G/B/|dc/c/ c2|ed/d/ d2|
gB fB|ed d/B/G/B/|dd/e/ d/c/A/F/|G2 G2:|
K:Dmaj
|:AA/A/ BB|A/B/d/e/ f2|ge cA|A/B/d/e/ f2|
AA/A/ BB|A/B/d/e/ f2|ge cA|d2 d2:|

